X:1
T:Hamilton, LM
T:Hamilton, LM
T:Martin Madan (1725-1790)
T:Public Domain Courtesy of the Cyber Hymnal™
C:Martin Madan (1725-1790)
Z:Public Domain
Z:Courtesy of the Cyber Hymnal™
%%score ( 1 2 ) ( 3 4 )
L:1/8
Q:1/4=105
M:2/4
K:C
V:1 treble 
V:2 treble 
V:3 bass 
V:4 bass 
V:1
 G2 | [Gc]2 [Gd]2 | G2 (e/f/g/e/) | [Ac]2 [GB]2 | !fermata![Gc]2 [Bd]2 | ([ce][Ac]) ([GB][CA]) | %6
 (dB) [CG][EA] | [GB]2 [CA]2 | !fermata![B,G]2 [B,G]2 | [Cc]2 [B,d]2 | (3(e{f'}fg) ([Ff][Ae]) | %11
 ([Gd][Ec]) (Bc) | !fermata![B,d]2 [B,G]2 | (c/B/c/d/ c)[B,d] | (e/d/e/f/ g)[Ee] | (c>e) dB | %16
 !fermata!G2 z G | [Ac][Ac] (d/e/)[cf] | [ce]2 [Bd]2 | !fermata!c2 |] %20
V:2
 G2 | x4 | G2 cA | x4 | x4 | x4 | B,2 x2 | x4 | x4 | x4 | C2 x2 | x2 C2 | x4 | C3 x | C3 x | %15
 E2 G2 | G2 G x | x2 B x | x4 | c2 |] %20
V:3
 [C,G,C]2 | [C,E]2 [G,D]2 | (CB,) [A,C]2 | [F,C]2 [G,D]2 | !fermata![C,E]2 [G,D]2 | %5
 (CE) ([G,D][A,E]) | [G,D]2 [C,C]2 | [E,B,]2 [F,C]2 | !fermata![G,D]2 [G,D]2 | [A,E]2 [G,D]2 | %10
 C2 (3(C{c}DE) | (DC) E2 | !fermata![E,D]2 [G,D]2 | [E,E]3 [G,D] | C3 [C,C] | [E,E]2 [F,D]2 | %16
 !fermata![E,D]2 z [G,D] | [C,E][C,E] ([G,D]/[E,B,]/)[F,C] | [A,C]2 [G,D]2 | !fermata![C,C]2 |] %20
V:4
 x2 | x4 | F,2 x2 | x4 | x4 | C,2 x2 | x4 | x4 | x4 | x4 | C2 C2 | G,2 (E,C,) | x4 | x4 | %14
 (C/B,/C/D/ C) x | x4 | x4 | x4 | x4 | x2 |] %20

